public/style/workarea/images/icons/exe-download-icon.svg

<svg fill="none" height="17" viewBox="0 0 16 17" width="16" xmlns="http://www.w3.org/2000/svg"><g stroke="#6b7280" stroke-linecap="round" stroke-linejoin="round" stroke-width="1.5"><path d="m4.66659 7.23535 3.33333 3.33335 3.33338-3.33335"/><path d="m8 10.5687v-8.00004"/><path d="m14 10.5687v2.6666c0 .3537-.1405.6928-.3905.9428-.2501.2501-.5892.3906-.9428.3906h-9.33337c-.35362 0-.69276-.1405-.94281-.3906-.25004-.25-.39052-.5891-.39052-.9428v-2.6666"/></g></svg>

<svg width="16" height="17" viewBox="0 0 16 17" fill="none" xmlns="http://www.w3.org/2000/svg">
<path d="M4.66659 7.23535L7.99992 10.5687L11.3333 7.23535" stroke="#6B7280" stroke-width="1.5" stroke-linecap="round" stroke-linejoin="round"/>
<path d="M8 10.5687L8 2.56866" stroke="#6B7280" stroke-width="1.5" stroke-linecap="round" stroke-linejoin="round"/>
<path d="M14 10.5687L14 13.2353C14 13.589 13.8595 13.9281 13.6095 14.1781C13.3594 14.4282 13.0203 14.5687 12.6667 14.5687L3.33333 14.5687C2.97971 14.5687 2.64057 14.4282 2.39052 14.1781C2.14048 13.9281 2 13.589 2 13.2353L2 10.5687" stroke="#6B7280" stroke-width="1.5" stroke-linecap="round" stroke-linejoin="round"/>
</svg>
